T: Kevin McHugh's
M: 6/8
L: 1/8
K: Gmaj
DEF|: G2B BAB | G2B BAG | F2A AGA |F2A DEF | G2B BAB | GAB ~d3 ||: aba age | ~g3 gfe | dBd gdB |ABA A3 | aba age | ~g3 gfe |dBd gdB| GAG G3 :||
